Obsidian/actions/16s/mail-forward-custom.svg

<svg viewBox="0 0 16 16" xmlns="http://www.w3.org/2000/svg"><path d="m8.484375 2-.7285156.7265625 4.2402346 4.2285156-9.996094.0449219v1l10.060547-.0175781-4.3046876 4.2910161.7285156.726562 5.515625-5.5zm-3.984375 7-.4785156 1.345703-1.2890625-.6132811.6132812 1.2890621-1.3457031.478516 1.3457031.478516-.6132812 1.289062 1.2890625-.613281.4785156 1.345703.4785156-1.345703 1.2890625.613281-.6132812-1.289062 1.3457031-.478516-1.3457031-.478516.6132812-1.2890621-1.2890625.6132811z" fill="#f2f2f2"/></svg>

<svg xmlns="http://www.w3.org/2000/svg" viewBox="0 0 16 16">
  <defs id="defs3051">
    <style type="text/css" id="current-color-scheme">
      .ColorScheme-Text {
        color:#f2f2f2;
      }
      </style>
  </defs>
 <path style="fill:currentColor;fill-opacity:1;stroke:none" 
     d="M 8.484375 2 L 7.7558594 2.7265625 L 11.996094 6.9550781 L 2 7 L 2 8 L 12.060547 7.9824219 L 7.7558594 12.273438 L 8.484375 13 L 14 7.5 L 8.484375 2 z M 4.5 9 L 4.0214844 10.345703 L 2.7324219 9.7324219 L 3.3457031 11.021484 L 2 11.5 L 3.3457031 11.978516 L 2.7324219 13.267578 L 4.0214844 12.654297 L 4.5 14 L 4.9785156 12.654297 L 6.2675781 13.267578 L 5.6542969 11.978516 L 7 11.5 L 5.6542969 11.021484 L 6.2675781 9.7324219 L 4.9785156 10.345703 L 4.5 9 z "
     class="ColorScheme-Text"
     />
</svg>
